svg/alphanum/g-square.svg

<svg width="448" height="512" viewBox="0 0 448 512" version="1.1" xmlns="http://www.w3.org/2000/svg"><path fill="currentColor" d="M400,480l-352,0c-26.51,0 -48,-21.49 -48,-48l0,-352c0,-26.51 21.49,-48 48,-48l352,0c26.51,0 48,21.49 48,48l0,352c0,26.51 -21.49,48 -48,48Zm-123.426,-176c-6.83,15.996 -23.81,23.994 -50.94,23.994c-20.335,0 -37.656,-7.046 -51.963,-21.137c-14.306,-14.091 -21.46,-31.078 -21.46,-50.963c0,-19.885 7.154,-36.873 21.46,-50.964c14.307,-14.091 31.628,-21.136 51.963,-21.136c18.592,0 35.97,2.464 49.914,14.766c1.452,1.288 2.759,2.575 3.921,3.863c1.162,1.287 2.034,2.182 2.615,2.682c0.581,0.501 1.053,0.966 1.416,1.395c0.363,0.429 1.126,0.68 2.288,0.751c1.162,0.072 2.215,0.143 3.159,0.215c0.944,0.071 2.941,0.107 5.991,0.107l41.832,0c3.569,0 9.219,-2.175 7.169,-7.9c-10.458,-23.032 -26.181,-40.771 -47.17,-53.216c-20.988,-12.446 -44.555,-18.598 -70.699,-18.455c-17.575,0 -34.388,3.362 -50.438,10.086c-16.05,6.723 -29.884,15.807 -41.504,27.252c-11.62,11.444 -20.88,25.035 -27.779,40.771c-6.899,15.736 -10.349,32.33 -10.349,49.783c0,23.175 5.81,44.597 17.43,64.268c11.62,19.67 27.415,35.227 47.387,46.671c19.972,11.445 41.723,17.167 65.253,17.167c15.396,0 30.175,-3.648 44.337,-10.944c13.461,-6.935 24.659,-15.292 33.593,-25.071l0,20.015c0,8.837 7.163,16 16,16l16,0c8.837,0 16,-7.163 16,-16l0,-96c0,-8.837 -7.163,-16 -16,-16l-80,0c-8.837,0 -16,7.163 -16,16l0,16c0,8.837 7.163,16 16,16l20.574,0Z"></path></svg>

<svg width="448" height="512" viewBox="0 0 448 512" fill="none" xmlns="http://www.w3.org/2000/svg">
<path fill-rule="evenodd" clip-rule="evenodd" d="M48 32C21.4903 32 0 53.4903 0 80V432C0 458.51 21.4903 480 48 480H400C426.51 480 448 458.51 448 432V80C448 53.4903 426.51 32 400 32H48ZM352 368V272C352 263.163 344.837 256 336 256H256C247.163 256 240 263.163 240 272V288C240 296.837 247.163 304 256 304H276.574C269.745 319.996 252.765 327.994 225.634 327.994C205.299 327.994 187.978 320.948 173.671 306.857C159.365 292.766 152.211 275.779 152.211 255.894C152.211 236.009 159.365 219.021 173.671 204.93C187.978 190.839 205.299 183.794 225.634 183.794C244.226 183.794 261.604 186.258 275.548 198.56C277 199.848 278.307 201.135 279.469 202.423C280.631 203.71 281.503 204.605 282.084 205.105C282.665 205.606 283.137 206.071 283.5 206.5C283.863 206.929 284.626 207.18 285.788 207.251C286.95 207.323 288.003 207.394 288.947 207.466C289.891 207.537 291.888 207.573 294.938 207.573H336.77C340.339 207.573 345.989 205.398 343.939 199.673C333.481 176.641 317.758 158.902 296.769 146.457C275.781 134.011 252.214 127.859 226.07 128.002C208.495 128.002 191.682 131.364 175.632 138.088C159.582 144.811 145.748 153.895 134.128 165.34C122.508 176.784 113.248 190.375 106.349 206.111C99.4496 221.847 96 238.441 96 255.894C96 279.069 101.81 300.491 113.43 320.162C125.05 339.832 140.845 355.389 160.817 366.833C180.789 378.278 202.54 384 226.07 384C241.466 384 256.245 380.352 270.407 373.056C283.868 366.121 295.066 357.764 304 347.985V368C304 376.837 311.163 384 320 384H336C344.837 384 352 376.837 352 368Z" fill="black"/>
</svg>
